X: 90
T:Lady in the Dark
M:6/8
L:1/8
Q:120
S:Playford
K:Gm
G| G2 A Bcd| G3 G2 A|B2 c d=ef| B3 B2 d/2=e/2| f d2 B2 d| c A2 F2 F| G2A Bcd| G3 G2:|

